X:1
T:Fuga in Do maggiore
T:BWV 953
T:Johann Sebastian Bach
%%score 1 2 3
L:1/8
Q:1/4=72
M:4/4
K:C
V:1 treble nm="Violin" snm="Vln."
V:2 treble nm="Violin" snm="Vln."
V:3 bass nm="Violoncello" snm="Vlc."
V:1
"^Adagio"!f!!f! z2 z/!f![Q:1/4=80] c/B/c/ A/c/B/c/ G/c/B/c/ | F/c/B/c/ E/c/B/c/ D/c/B/A/ B/c/A/B/ | %2
 c/e/d/c/!p! B z c z B z | e z d z cAdc | B z c z c z c z | c z c z fdgf | ecfe dBed | %7
 cAdc B/c/B/A/!f! G/g/^f/g/ | e/g/^f/g/ d/g/f/g/ c/g/f/g/ B/g/f/g/ | %9
 A/g/^f/e/ ^f/g/e/^f/ G/=f/e/d/ e/f/d/e/ | F/e/d/c/ d/e/c/d/ E/d/c/B/ c/d/B/c/ | %11
 D/c/B/A/ B/c/A/B/ ^G/A/^G/^F/ E/e/d/e/ | c/d/c/B/!p! A^c d z =c z | f z e z!f! d/c/B/A/ B/f/e/d/ | %14
 c/d/^c/B/ ^c/d/B/^c/ d/f/e/d/ e/_b/a/g/ | f/e/d/^c/ d/e/=c/d/ B/g/^f/e/ ^f/c'/b/a/ | %16
 g/^f/g/a/!p! b2 a2 g2- | g ^f2 e a3 a |!p! g4- g3 g | ^f4-!f! f/^f/e/^d/ e/^f/=d/e/ | %20
!p! ^c2 =c2-!f! c/c/B/A/ B/c/A/B/ |!p! ^G2-!f! G/^F/^G/A/ B/A/c/B/ A/^G/A/^F/ | %22
!p! G2!f! AB!p! c4- | c z!f! GA!p! B4- |!f! B/c/B/c/ ^f/c/g/c/!p! a4- | %25
 ad!f! g/a/^f/g/ e/g/^f/g/ d/g/^f/g/ | c/g/^f/g/ B/g/^f/g/ A/g/^f/e/ ^f/g/e/^f/ | %27
 B/a/g/^f/ g/a/^f/g/ c/b/a/g/ a/b/g/a/ | bg z/ z/ B/d/!p! gcBd | gAGb c'adc' | bgc_b af=Ba | %31
 geAg fdGf |!f! e/d/c/B/!p! c6- | c4 d4- |!f! d/G/F/G/!p! c2!f! z/ G/^F/G/!p! =f2 | %35
!f! z/ G/c- c/cB/!f! c4 |] %36
V:2
 z8 | z8 | z2!f! z/ G/^F/G/ E/G/^F/G/ D/G/^F/G/ | C/G/^F/G/ B,/G/^F/G/ A,/G/^F/E/ ^F/G/E/^F/ | %4
 G/A/G/F/!p! E z F z E z | A z G z A z d z | G z c z ^F z B z | E z c z D z z2 | z8 | z8 | z8 | %11
 z8 | z2 z/!f! A/G/A/ F/A/^G/A/ E/A/^G/A/ | D/A/^G/A/ C/A/^G/A/!f! B,/A/^G/^F/ ^G/A/^F/^G/ | %14
 A/F/E/D/ E/_B/A/G/ F/D/^C/=B,/ ^C/D/B,/^C/ | D/G/F/E/ F/G/E/F/ ^D/E/^D/^C/ ^D/E/^C/^D/ | %16
 E/^D/E/^F/!p! Gg- g ^f2 e | c2 B2 cA ^f2- |!f! f/^f/e/^d/ e/^f/=d/e/!p! ^cA e2- | %19
!f! e/e/d/^c/ d/e/=c/d/!p! B4- |!f! B/B/A/G/ A/B/G/A/!p! ^F4- |!f! F/^F/E/^D/!p! E2- E3 ^D | %22
!f! z/ E/^D/E/!p! z/ EE/- EEAG |!f! ^F/D/^C/D/!p! z/ DD/- DDG^F |!p! E z z2 z Adc | %25
!f! B/^F/G/^F/ E/G/D/G/ C/B,/A,/B,/ D/B,/A,/B,/ | E/B,/A,/B,/ D/B,/A,/B,/ C/B,/A,/G,/ A,/B,/C/A,/ | %27
 D/C/B,/A,/ B,/C/D/B,/ E/D/C/B,/ C/D/E/^F/ | G/A/B/c/ B/A/G/^F/ E/G/^F/G/ D/G/^F/G/ | %29
 C/G/^F/G/ B,/G/^F/G/ A,/G/^F/E/ ^F/G/E/^F/ | G,/F/E/D/ E/F/D/E/[K:bass] F,/E/D/C/ D/E/C/D/ | %31
 E,/D/C/B,/ C/D/B,/C/ D,/C/B,/A,/ B,/C/A,/B,/ |!p! C2[K:treble]!f! z/ E/D/E/ F/E/D/E/ G/E/D/E/ | %33
 A/E/D/E/ G/E/D/E/ FDGF |!p! E2!f! z/ A/G/A/!p! B2!f! z/ d/c/d/ | e>E DF!f! [EG]4 |] %36
V:3
 z8 | z8 | z8 | z8 | z2!f! z/ C/B,/C/ A,/C/B,/C/ G,/C/B,/C/ | %5
 F,/C/B,/C/ E,/C/B,/C/ D,/C/B,/A,/ B,/C/A,/B,/ | %6
 C,/B,/A,/G,/ A,/B,/G,/A,/ B,,/A,/G,/^F,/ G,/A,/^F,/G,/ | %7
 A,,/G,/^F,/E,/ ^F,/G,/E,/^F,/ G,/^F,/G,/A,/!p!!mp! B,/G,/A,/B,/ | CC,B,,B, A,A,,G,,G, | %9
 C,A,,D,C, B,,G,,C,B,, | A,,F,,B,,A,, ^G,,E,,A,,=G,, | F,,D,,D,B,, E,^F,^G,E, | %12
 A,G,F,E, D, z A, z | A, z A, z!f! A, z z2 | A, z z2 A, z z2 | A, z z2 A, z z2 | %16
 z2!f! z/ E/^D/E/ C/E/^D/E/ B,/E/^D/E/ | A,/E/^D/E/ G,/E/^D/E/ ^F,/E/^D/^C/ ^D/E/^C/^D/ | %18
!p! E,^F,G,E,!f! A,/=D/^C/B,/ ^C/D/B,/^C/ |!p! D,E,^F,D, G,^F,^G,E, | %20
!f! A,/=G,/^F,/E,/ ^F,/G,/E,/^F,/!p! ^D,^C,^D,B,, |!p! E,B,,=C,^F,, G,,A,,B,,B, | %22
!p! E,E,,^F,,G,,!f! A,,/G,/A,/G,/ ^F,/A,/E,/A,/ |!p! D,D,,E,,^F,,!f! G,,/^F,/G,/^F,/ E,/G,/D,/G,/ | %24
!p! C,E,A,,C,!f! ^F,,/C/D/C/ B,/D/A,/D/ | G,2 z2 z4 | z8 | z8 | z8 | z8 | z8 | z8 | %32
 z2!f! z/ C,/B,,/C,/ A,,/C,/B,,/C,/ G,,/C,/B,,/C,/ | %33
 F,,/C,/B,,/C,/ E,,/C,/B,,/C,/ D,,/C,/B,,/A,,/ B,,/C,/A,,/B,,/ |!p! C,D,E,^F, G,G,,A,,B,, | %35
 C,E,,=F,,G,,!f! C,,4 |] %36

